src/status/16/xfce4-dict.svg

<svg viewBox="0 0 16 16" xmlns="http://www.w3.org/2000/svg">
 <g transform="translate(0 1)" fill="#2e3440" fill-rule="evenodd">
  <path d="m7 15h2v-12h-2z" stroke-width=".612"/>
  <path d="m10 14 5-2v-11l-5 2z"/>
  <path d="m7 2h2l5-2c-4 0-6 1-6 1s-2-1-6-1z"/>
  <path d="m6 14-5-2v-11l5 2z"/>
 </g>
</svg>

<svg xmlns="http://www.w3.org/2000/svg" viewBox="0 0 16 16">
 <g style="fill:#2e3440;fill-rule:evenodd" transform="matrix(1 0 0 1 0 1)">
  <path style="stroke-width:0.612" d="M 7,15 H 9 V 3 H 7 Z"/>
  <path d="m 10,14 5,-2 V 1 l -5,2 z"/>
  <path d="M 7,2 H 9 L 14,0 C 10,0 8,1 8,1 8,1 6,0 2,0 Z"/>
  <path d="M 6,14 1,12 V 1 l 5,2 z"/>
 </g>
</svg>
